X:1
T:James Gibb editions
T:Ye that have spent the silent night - Barnby
%%score [ ( 1 2 ) ( 3 4 ) ]
L:1/8
Q:1/4=80
M:4/4
K:Eb
V:1 treble nm="Midi_74"
V:2 treble 
V:3 bass nm="Midi_74"
V:4 bass 
V:1
"^George Gascoigne\n(1525-77)""^86. 86. D""^Ye that have spent the silent night""^Joseph Barnby\n(1838-96)" G2 GG G2 G2 | %1
 A3 A G2 || G2 | F2 B2 B2 =A2 | B6 || F2 | A3 A G2 G2 | G2 c2 =A2 || =A2 | Bc d2 d2 c2 | B6 || %11
[M:4/4] B2 | d3 d c2 B2 | B3 e e2 | B2 | B2 G2 A2 B2 | c6 || c2 | F3 F G2 A2 | B2 c2 A2 || F2 | %21
 E2 B,2 G2 F2 | E8 || E4 E4 |] %24
V:2
 E2 EE E2 E2 | E3 E E2 || E2 | F2 F2 F2 F2 | F6 || F2 | F3 F D2 D2 | G2 G2 ^F2 || =A2 | %9
 G2 D=E F2 _E2 | D6 ||[M:4/4] B,2 | F3 F F2 F2 | E3 E E2 | D2 | E2 E2 E2 _D2 | C6 || E2 | %18
 D3 D E2 D2 | E2 =E2 C2 || C2 | B,2 B,2 E2 D2 | E8 || C4 B,4 |] %24
V:3
 B,2 B,B, B,2 B,2 | C3 C B,2 || B,2 | B,2 D2 C2 C2 | D6 || D2 | C3 C =B,2 B,2 | C2 E2 D2 || D2 | %9
 DC B,2 B,2 =A,2 | B,6 ||[M:4/4] B,2 | B,3 B, C2 D2 | %13
"^1. Ye that have spent the silent night\nIn sleep and quiet rest,\nAnd joy to see the cheerful light\nThat riseth in the east,\nNow clear your voice, now cheer your heart,\nCome, help me now to sing;\nEach willing wight, come bear a part,\nTo praise the heavenly King.\n\n2. And ye whom care in prison keeps\nOr sickness doth suppress,\nOr secret sorrow breaks your sleeps\nOr dolours to distress:\nYet bear a part in humble wise,\nYea, think it good accord,\nAnd full and fitting sacrifice\nEach soul to praise the Lord.\n\n3. Unto His joys for to attain\nGod grant us all His grace,\nAnd send us after worldly pain\nIn Heav’n to have a place;\nWhere we may still enjoy that light\nWhich never shall decay:\nLord, for Thy mercy lend us might\nTo see that joyful day." E3 B, B,2 | %14
 A,2 | G,2 B,2 A,2 G,2 | A,6 || C2 | B,3 B, B,2 A,2 |"^rall." G,2 G,2 F,2 || A,2 | %21
 G,2 G,2 B,2 A,2 | G,8 || A,4 G,4 |] %24
V:4
 E,2 E,E, E,2 E,2 | A,,3 A,, E,2 || E,2 | D,2 B,,2 F,2 F,2 | B,,6 || B,2- | F,3 F, G,2 G,2 | %7
 E,2 C,2 D,2 || ^F,2 | G,2 G,2 F,2 F,2 | B,6 ||[M:4/4] B,2 | A,3 A, A,2 A,2 | G,3 G, G,2 | F,2 | %15
 E,2 _D,2 C,2 B,,2 | A,,6 || A,2 | A,3 A, G,2 F,2 | E,2 C,2 F,2 || A,,2 | B,,2 B,,2 B,,2 B,,2 | %22
 E,8 || A,,4 E,4 |] %24

